svgs/sharp-regular/file-user.svg

<svg xmlns="http://www.w3.org/2000/svg" viewBox="0 0 384 512"><!--! Font Awesome Pro 6.6.0 by @fontawesome - https://fontawesome.com License - https://fontawesome.com/license (Commercial License) Copyright 2024 Fonticons, Inc. --><path d="M298.7 464L272 384l-160 0L85.3 464 48 464 48 48l176 0 0 112 112 0 0 304-37.3 0zM256 0L48 0 0 0 0 48 0 464l0 48 48 0 288 0 48 0 0-48 0-336L256 0zm0 288a64 64 0 1 0 -128 0 64 64 0 1 0 128 0z"/></svg>

<svg xmlns="http://www.w3.org/2000/svg" viewBox="0 0 384 512"><!--! Font Awesome Pro 6.4.0 by @fontawesome - https://fontawesome.com License - https://fontawesome.com/license (Commercial License) Copyright 2023 Fonticons, Inc. --><path d="M298.7 464L272 384H112L85.3 464H48V48H224V160H336V464H298.7zM256 0H48 0V48 464v48H48 336h48V464 128L256 0zm0 288a64 64 0 1 0 -128 0 64 64 0 1 0 128 0z"/></svg>
